; generated by Slic3r 1.1.7 on 2014-09-15 at 10:20:47

; perimeters extrusion width = 0.50mm
; infill extrusion width = 0.52mm
; solid infill extrusion width = 0.52mm
; top infill extrusion width = 0.52mm

G21 ; set units to millimeters
M107
M104 S205 ; set temperature
G28 ; home all axes
G1 Z5 F5000 ; lift nozzle

M109 S205 ; wait for temperature to be reached
G90 ; use absolute coordinates
G92 E0
M82 ; use absolute distances for extrusion
G1 F1800.000 E-1.00000
G92 E0
G1 Z0.500 F7800.000
G1 X68.297 Y91.573 F7800.000
G1 E1.00000 F1800.000
G1 X70.091 Y90.282 E1.13951 F1080.000
G1 X125.290 Y62.742 E5.03486
G1 X125.923 Y62.460 E5.07862
G1 X127.293 Y62.015 E5.16958
G1 X127.971 Y61.871 E5.21330
G1 X129.404 Y61.720 E5.30430
G1 X130.096 Y61.720 E5.34803
G1 X131.529 Y61.871 E5.43902
G1 X132.207 Y62.015 E5.48275 F1080.000
G1 X133.577 Y62.460 E5.57373
G1 X134.210 Y62.742 E5.61747
G1 X135.458 Y63.462 E5.70845
G1 X135.981 Y63.843 E5.74933
G1 X137.089 Y64.834 E5.84316
G1 X137.552 Y65.349 E5.88691
G1 X138.399 Y66.514 E5.97784
G1 X138.745 Y67.114 E6.02161
G1 X139.331 Y68.430 E6.11259
G1 X139.545 Y69.089 E6.15632
G1 X139.845 Y70.498 E6.24732
G1 X139.918 Y71.188 E6.29111
G1 X139.917 Y72.628 E6.38203
G1 X139.845 Y73.317 E6.42577
G1 X139.545 Y74.726 E6.51676
G1 X139.331 Y75.385 E6.56050
G1 X138.745 Y76.701 E6.65147
G1 X138.422 Y77.262 E6.69237
G1 X138.064 Y77.825 E6.73446
G1 X98.962 Y133.231 E11.01667
G1 X97.563 Y134.785 E11.14868
G1 X96.493 Y135.749 E11.23964
G1 X94.802 Y136.978 E11.37165
G1 X93.553 Y137.699 E11.46268
G1 X93.168 Y137.870 E11.48933
G1 X90.364 Y138.466 E11.67030
G1 X81.136 Y138.466 E12.25305
G1 X78.333 Y137.870 E12.43400
G1 X77.947 Y137.698 E12.46068
G1 X76.698 Y136.978 E12.55170
G1 X75.007 Y135.749 E12.68371
G1 X73.937 Y134.785 E12.77467
G1 X72.538 Y133.231 E12.90668
G1 X71.691 Y132.066 E12.99768
G1 X70.523 Y130.034 E13.14566
G1 X61.523 Y113.034 E14.36030
G1 X61.059 Y111.939 E14.43539
G1 X60.413 Y109.950 E14.56740
G1 X60.114 Y108.541 E14.65839
G1 X59.895 Y106.462 E14.79040
G1 X59.895 Y105.021 E14.88138
G1 X60.114 Y102.942 E15.01339
G1 X60.413 Y101.532 E15.10441
G1 X60.904 Y100.022 E15.20468
G1 X62.588 Y97.275 E15.40813
G1 X68.244 Y91.626 E15.91292
G1 F1800.000 E14.91292
G92 E0
G1 X88.524 Y114.587 F7800.000
G1 E1.00000 F1800.000
G1 X86.649 Y114.189 E1.12103 F540.000
G1 X84.851 Y114.189 E1.23456
G1 X82.976 Y114.587 E1.35559
G1 X81.928 Y112.772 E1.48795
G1 X83.707 Y110.796 E1.65585
G1 X85.750 Y107.258 E1.91383
G1 X87.793 Y110.796 E2.17180
G1 X89.572 Y112.772 E2.33970
G1 X88.561 Y114.522 E2.46733
G1 X88.075 Y113.579 F7800.000
G1 X86.743 Y113.296 E2.55333 F378.000
G1 X84.757 Y113.296 E2.67870
G1 X83.425 Y113.579 E2.76470
G1 X83.026 Y112.887 E2.81516
G1 X84.433 Y111.324 E2.94802
G1 X85.750 Y109.043 E3.11429
G1 X87.067 Y111.324 E3.28056
G1 X88.474 Y112.887 E3.41342
G1 X88.112 Y113.514 E3.45914
G1 X87.920 Y114.055 F7800.000
G1 X88.973 Y115.595 F7800.000
G1 X90.669 Y112.657 E3.67342 F540.000
G1 X88.519 Y110.268 E3.87634
G1 X88.079 Y109.506 E3.93193
G1 X88.635 Y109.134 E3.97417
G1 X89.817 Y110.675 E4.09676
G1 X91.847 Y112.233 E4.25839
G1 X92.141 Y112.354 E4.27846
G1 X91.948 Y112.977 E4.31960
G1 X91.527 Y112.887 E4.34674
G1 X89.831 Y115.826 E4.56102
G1 X90.521 Y116.593 E4.62619
G1 X90.192 Y117.059 E4.66223
G1 X88.288 Y116.270 E4.79239
G1 X85.750 Y115.936 E4.95402
G1 X83.212 Y116.270 E5.11565
G1 X81.308 Y117.059 E5.24581
G1 X80.979 Y116.593 E5.28184
G1 X81.669 Y115.826 E5.34702
G1 X79.973 Y112.887 E5.56130
G1 X79.552 Y112.977 E5.58844
G1 X79.359 Y112.354 E5.62958
G1 X79.653 Y112.233 E5.64965
G1 X81.683 Y110.675 E5.81128
G1 X82.865 Y109.134 E5.93387
G1 X83.421 Y109.506 E5.97611
G1 X82.981 Y110.268 E6.03170
G1 X80.831 Y112.657 E6.23462
G1 X82.527 Y115.595 E6.44890
G1 X84.945 Y115.081 E6.60496
G1 X86.555 Y115.081 E6.70664
G1 X88.899 Y115.580 E6.85796
G1 F1800.000 E5.85796
G92 E0
G1 X84.078 Y108.369 F7800.000
G1 E1.00000 F1800.000
G1 X83.478 Y108.073 E1.04224 F540.000
G1 X84.221 Y106.279 E1.16483
G1 X84.430 Y104.693 E1.26587
G1 X84.932 Y104.593 E1.29818
G1 X85.595 Y105.741 E1.38192
G1 X84.115 Y108.304 E1.56875
G1 X87.422 Y108.369 F7800.000
G1 X85.905 Y105.741 E1.76031 F540.000
G1 X86.568 Y104.593 E1.84404
G1 X87.070 Y104.693 E1.87636
G1 X87.279 Y106.279 E1.97739
G1 X88.022 Y108.073 E2.09998
G1 X87.489 Y108.335 E2.13748
G1 X85.750 Y104.225 F7800.000
G1 X87.631 Y100.967 E2.37500 F540.000
G1 X88.186 Y101.156 E2.41201
G1 X87.845 Y103.741 E2.57670
G1 X88.149 Y106.046 E2.72349
G1 X89.038 Y108.194 E2.87028
G1 X90.453 Y110.038 E3.01707
G1 X92.298 Y111.453 E3.16385
G1 X94.445 Y112.343 E3.31064
G1 X96.750 Y112.646 E3.45743
G1 X99.353 Y112.303 E3.62319
G1 X99.558 Y112.819 E3.65826
G1 X99.050 Y113.189 E3.69796
G1 X97.407 Y113.920 E3.81148
G1 X95.649 Y114.294 E3.92500
G1 X93.851 Y114.294 E4.03853
G1 X91.976 Y113.895 E4.15956
G1 X90.928 Y115.711 E4.29193
G1 X92.707 Y117.687 E4.45982
G1 X93.606 Y119.244 E4.57334
G1 X94.162 Y120.953 E4.68687
G1 X94.222 Y121.526 E4.72321
G1 X93.623 Y121.678 E4.76224
G1 X93.462 Y121.289 E4.78882
G1 X92.047 Y119.445 E4.93561
G1 X90.202 Y118.030 E5.08240
G1 X88.055 Y117.140 E5.22919
G1 X85.750 Y116.837 E5.37598
G1 X83.445 Y117.140 E5.52276
G1 X81.298 Y118.030 E5.66955
G1 X79.453 Y119.445 E5.81634
G1 X78.038 Y121.289 E5.96313
G1 X77.877 Y121.678 E5.98971
G1 X77.278 Y121.526 E6.02874
G1 X77.338 Y120.953 E6.06508
G1 X77.894 Y119.244 E6.17860
G1 X78.793 Y117.687 E6.29213
G1 X80.572 Y115.711 E6.46002
G1 X79.524 Y113.895 E6.59238
G1 X77.649 Y114.294 E6.71342
G1 X75.851 Y114.294 E6.82694
G1 X74.093 Y113.920 E6.94047
G1 X72.450 Y113.189 E7.05399
G1 X71.942 Y112.819 E7.09368
G1 X72.147 Y112.303 E7.12876
G1 X74.750 Y112.646 E7.29452
G1 X77.055 Y112.343 E7.44130
G1 X79.202 Y111.453 E7.58809
G1 X81.047 Y110.038 E7.73488
G1 X82.462 Y108.194 E7.88167
G1 X83.351 Y106.046 E8.02846
G1 X83.655 Y103.741 E8.17524
G1 X83.314 Y101.156 E8.33993
G1 X83.869 Y100.967 E8.37694
G1 X85.713 Y104.160 E8.60973
G1 X85.750 Y102.439 F7800.000
G1 X87.067 Y100.159 E8.77600 F378.000
G1 X88.395 Y98.684 E8.90137
G1 X90.001 Y97.516 E9.02675
G1 X91.883 Y96.679 E9.15679
G1 X92.207 Y97.224 E9.19687
G1 X91.090 Y98.081 E9.28579
G1 X89.818 Y99.739 E9.41773
G1 X89.018 Y101.670 E9.54968
G1 X88.746 Y103.741 E9.68162
G1 X89.018 Y105.813 E9.81357
G1 X89.818 Y107.743 E9.94551
G1 X91.090 Y109.401 E10.07746
G1 X92.748 Y110.673 E10.20940
G1 X94.678 Y111.473 E10.34135
G1 X96.750 Y111.746 E10.47330
G1 X98.822 Y111.473 E10.60524
G1 X100.752 Y110.673 E10.73719
G1 X102.410 Y109.401 E10.86913
G1 X103.205 Y108.365 E10.95162
G1 X103.738 Y108.645 E10.98963
G1 X103.426 Y109.604 E11.05331
G1 X102.433 Y111.324 E11.17868
G1 X101.105 Y112.799 E11.30406
G1 X99.499 Y113.966 E11.42943
G1 X97.685 Y114.774 E11.55480
G1 X95.743 Y115.187 E11.68017
G1 X93.757 Y115.187 E11.80555
G1 X92.425 Y114.903 E11.89155
G1 X92.026 Y115.595 E11.94201
G1 X93.433 Y117.159 E12.07487
G1 X94.426 Y118.878 E12.20024
G1 X95.040 Y120.767 E12.32561
G1 X95.247 Y122.741 E12.45099
G1 X95.040 Y124.716 E12.57636
G1 X94.426 Y126.604 E12.70174
G1 X94.160 Y127.066 E12.73538
G1 X93.605 Y126.877 E12.77239
G1 X93.754 Y125.741 E12.84474
G1 X93.482 Y123.670 E12.97669
G1 X92.682 Y121.739 E13.10863
G1 X91.410 Y120.081 E13.24058
G1 X89.752 Y118.809 E13.37252
G1 X89.510 Y118.709 E13.38904
G1 X87.822 Y118.010 E13.50447
G1 X85.750 Y117.737 E13.63642
G1 X83.678 Y118.010 E13.76836
G1 X81.748 Y118.809 E13.90031
G1 X80.090 Y120.081 E14.03225
G1 X78.818 Y121.739 E14.16420
G1 X78.018 Y123.670 E14.29614
G1 X77.746 Y125.741 E14.42809
G1 X77.895 Y126.877 E14.50044
G1 X77.340 Y127.066 E14.53745
G1 X77.074 Y126.604 E14.57109
G1 X76.460 Y124.716 E14.69647
G1 X76.253 Y122.741 E14.82184
G1 X76.460 Y120.767 E14.94722
G1 X77.074 Y118.878 E15.07259
G1 X78.067 Y117.159 E15.19796
G1 X79.474 Y115.595 E15.33082
G1 X79.075 Y114.903 E15.38128
G1 X77.743 Y115.187 E15.46728
G1 X75.757 Y115.187 E15.59266
G1 X73.815 Y114.774 E15.71803
G1 X72.001 Y113.966 E15.84340
G1 X70.395 Y112.799 E15.96877
G1 X69.067 Y111.324 E16.09415
G1 X68.074 Y109.604 E16.21952
G1 X67.762 Y108.645 E16.28320
G1 X68.295 Y108.365 E16.32121
G1 X69.090 Y109.401 E16.40370
G1 X70.748 Y110.673 E16.53564
G1 X72.678 Y111.473 E16.66759
G1 X74.750 Y111.746 E16.79953
G1 X76.822 Y111.473 E16.93148
G1 X78.510 Y110.773 E17.04690
G1 X78.752 Y110.673 E17.06342
G1 X80.410 Y109.401 E17.19537
G1 X81.682 Y107.743 E17.32732
G1 X82.482 Y105.813 E17.45926
G1 X82.754 Y103.741 E17.59121
G1 X82.482 Y101.670 E17.72315
G1 X81.682 Y99.739 E17.85510
G1 X80.410 Y98.081 E17.98704
G1 X79.293 Y97.224 E18.07596
G1 X79.617 Y96.679 E18.11604
G1 X81.499 Y97.516 E18.24608
G1 X83.105 Y98.684 E18.37146
G1 X84.433 Y100.159 E18.49683
G1 X85.713 Y102.374 E18.65837
G1 X86.133 Y102.761 F7800.000
G1 F1800.000 E17.65837
G92 E0
G1 X93.170 Y127.258 F7800.000
G1 E1.00000 F1800.000
G1 X93.508 Y128.002 E1.05161 F378.000
G1 X93.371 Y128.279 E1.07106
G1 X92.484 Y129.675 E1.17551
G1 X92.248 Y129.958 E1.19881
G1 X91.351 Y130.833 E1.27793
G1 F1800.000 E0.27793
G92 E0
G1 X79.997 Y130.854 F7800.000
G1 E1.00000 F1800.000
G1 X78.969 Y129.610 E1.10195 F378.000
G1 X78.129 Y128.279 E1.20134
G1 X77.992 Y128.002 E1.22080
G1 X78.125 Y127.732 E1.23978
G1 X78.445 Y127.219 E1.27798
G1 F1800.000 E0.27798
G92 E0
G1 X67.725 Y108.100 F7800.000
G1 E1.00000 F1800.000
G1 X67.131 Y105.741 E1.15358 F378.000
G1 X67.105 Y103.760 E1.27867
G1 X67.151 Y103.354 E1.30447
G1 F1800.000 E0.30447
G92 E0
G1 X104.315 Y103.362 F7800.000
G1 E1.00000 F1800.000
G1 X104.395 Y103.760 E1.02564 F378.000
G1 X104.369 Y105.741 E1.15074
G1 X103.775 Y108.100 E1.30431
G1 F1800.000 E0.30431
G92 E0
G1 X74.659 Y96.125 F7800.000
G1 E1.00000 F1800.000
G1 X75.735 Y96.082 E1.06800 F378.000
G1 X76.831 Y96.160 E1.13737
G1 X77.738 Y96.341 E1.19579
G1 X79.003 Y96.734 E1.27942
G1 F1800.000 E0.27942
G92 E0
G1 X92.497 Y96.734 F7800.000
G1 E1.00000 F1800.000
G1 X93.762 Y96.341 E1.08362 F378.000
G1 X94.669 Y96.160 E1.14205
G1 X95.765 Y96.082 E1.21142
G1 X96.841 Y96.125 E1.27942
G1 F1800.000 E0.27942
G92 E0
G1 X76.175 Y113.404 F7800.000
G1 E1.00000 F1800.000
G1 X74.502 Y113.338 E1.05922 F360.000
G1 X95.325 Y113.404 F7800.000
G1 X96.998 Y113.338 E1.11844 F360.000
G1 F1800.000 E0.11844
G92 E0
G1 X129.071 Y72.661 F7800.000
G1 E1.00000 F1800.000
G1 X128.929 Y72.504 E1.01339 F540.000
G1 X128.823 Y72.320 E1.02678
G1 X128.758 Y72.118 E1.04018
G1 X128.735 Y71.908 E1.05357
G1 X128.758 Y71.697 E1.06696
G1 X128.823 Y71.495 E1.08036
G1 X128.929 Y71.311 E1.09375
G1 X129.071 Y71.154 E1.10714
G1 X129.243 Y71.029 E1.12053
G1 X129.437 Y70.943 E1.13393
G1 X129.644 Y70.899 E1.14732
G1 X129.856 Y70.899 E1.16071
G1 X130.064 Y70.943 E1.17410
G1 X130.257 Y71.029 E1.18750 F540.000
G1 X130.429 Y71.154 E1.20089
G1 X130.571 Y71.311 E1.21428
G1 X130.677 Y71.495 E1.22767
G1 X130.742 Y71.697 E1.24107
G1 X130.765 Y71.907 E1.25446
G1 X130.742 Y72.118 E1.26785
G1 X130.677 Y72.320 E1.28124
G1 X130.571 Y72.504 E1.29464
G1 X130.429 Y72.661 E1.30803
G1 X130.257 Y72.786 E1.32142
G1 X130.063 Y72.872 E1.33481
G1 X129.856 Y72.916 E1.34821
G1 X129.644 Y72.916 E1.36160
G1 X129.437 Y72.872 E1.37499
G1 X129.243 Y72.786 E1.38839
G1 X129.132 Y72.706 E1.39704
G1 X128.408 Y73.259 F7800.000
G1 X128.203 Y73.031 E1.41636 F540.000
G1 X128.003 Y72.685 E1.44160
G1 X127.880 Y72.305 E1.46684
G1 X127.838 Y71.908 E1.49208
G1 X127.880 Y71.510 E1.51733
G1 X128.003 Y71.130 E1.54257
G1 X128.203 Y70.784 E1.56781
G1 X128.471 Y70.487 E1.59305
G1 X128.794 Y70.252 E1.61830
G1 X129.159 Y70.089 E1.64354
G1 X129.550 Y70.006 E1.66878
G1 X129.950 Y70.006 E1.69402 F540.000
G1 X130.341 Y70.089 E1.71926
G1 X130.706 Y70.252 E1.74450
G1 X131.029 Y70.487 E1.76975
G1 X131.297 Y70.784 E1.79499
G1 X131.497 Y71.130 E1.82023
G1 X131.620 Y71.510 E1.84547
G1 X131.662 Y71.907 E1.87071
G1 X131.620 Y72.305 E1.89596
G1 X131.497 Y72.685 E1.92120
G1 X131.297 Y73.031 E1.94644
G1 X131.029 Y73.329 E1.97168
G1 X130.706 Y73.563 E1.99692
G1 X130.341 Y73.726 E2.02217
G1 X129.950 Y73.809 E2.04741
G1 X129.550 Y73.809 E2.07265
G1 X129.159 Y73.726 E2.09789
G1 X128.794 Y73.563 E2.12314
G1 X128.458 Y73.315 E2.14954
G1 X127.744 Y73.856 F7800.000
G1 X127.477 Y73.559 E2.17478 F378.000
G1 X127.183 Y73.050 E2.21187
G1 X127.002 Y72.492 E2.24896
G1 X126.940 Y71.908 E2.28606
G1 X127.002 Y71.323 E2.32315
G1 X127.183 Y70.765 E2.36024
G1 X127.477 Y70.256 E2.39733
G1 X127.870 Y69.819 E2.43442
G1 X128.345 Y69.474 E2.47151
G1 X128.882 Y69.235 E2.50860
G1 X129.456 Y69.113 E2.54570
G1 X130.044 Y69.113 E2.58279
G1 X130.618 Y69.235 E2.61988
G1 X131.155 Y69.474 E2.65697 F378.000
G1 X131.630 Y69.819 E2.69406
G1 X132.023 Y70.256 E2.73115
G1 X132.317 Y70.765 E2.76825
G1 X132.498 Y71.323 E2.80534
G1 X132.560 Y71.907 E2.84243
G1 X132.498 Y72.492 E2.87952
G1 X132.317 Y73.050 E2.91661
G1 X132.023 Y73.559 E2.95370
G1 X131.630 Y73.996 E2.99080
G1 X131.155 Y74.341 E3.02789
G1 X130.618 Y74.580 E3.06498
G1 X130.044 Y74.702 E3.10207
G1 X129.456 Y74.702 E3.13916
G1 X128.882 Y74.580 E3.17625
G1 X128.345 Y74.341 E3.21334
G1 X127.870 Y73.996 E3.25044
G1 X127.795 Y73.912 E3.25755
G1 X130.898 Y69.650 F7800.000
G1 X129.923 Y71.567 F7800.000
G1 X130.091 Y71.735 E3.27260 F1080.000
M106 S255
M104 S200 ; set temperature
G1 F1800.000 E2.27260
G92 E0
G1 Z0.900 F7800.000
G1 X85.750 Y107.543 F7800.000
G1 E1.00000 F1800.000
G1 X87.677 Y110.880 E1.10903 F1616.337
G1 X89.396 Y112.790 E1.18175
G1 X88.452 Y114.426 E1.23519
G1 X86.664 Y114.046 E1.28691
G1 X84.836 Y114.046 E1.33863
G1 X83.048 Y114.426 E1.39035
G1 X82.104 Y112.790 E1.44380
G1 X83.823 Y110.880 E1.51652
G1 X85.713 Y107.608 E1.62342
G1 X85.750 Y108.543 F7800.000
G1 X87.270 Y111.176 E1.70943 F1616.337
G1 X88.782 Y112.855 E1.77336
G1 X88.201 Y113.862 E1.80625
G1 X86.716 Y113.546 E1.84918
G1 X84.784 Y113.546 E1.90387
G1 X83.299 Y113.862 E1.94680
G1 X82.718 Y112.855 E1.97969
G1 X84.230 Y111.176 E2.04361
G1 X85.713 Y108.608 E2.12750
G1 X85.750 Y109.543 F7800.000
G1 X86.863 Y111.471 E2.19050 F1131.436
G1 X88.167 Y112.920 E2.24563
G1 X87.949 Y113.297 E2.25796
G1 X86.769 Y113.046 E2.29210
G1 X84.731 Y113.046 E2.34977
G1 X83.551 Y113.297 E2.38391
G1 X83.333 Y112.920 E2.39624
G1 X84.637 Y111.471 E2.45137
G1 X85.713 Y109.608 E2.51224
G1 X86.133 Y109.222 F7800.000
G1 X85.750 Y103.939 F7800.000
G1 X87.677 Y100.602 E2.62127 F1616.337
G1 X88.811 Y99.343 E2.66923
G1 X89.096 Y99.522 E2.67877
G1 X88.288 Y101.474 E2.73854
G1 X87.989 Y103.741 E2.80324
G1 X88.288 Y106.009 E2.86795
G1 X89.163 Y108.122 E2.93266
G1 X90.555 Y109.936 E2.99737
G1 X92.370 Y111.328 E3.06208
G1 X94.483 Y112.204 E3.12679
G1 X96.750 Y112.502 E3.19150
G1 X99.017 Y112.204 E3.25621
G1 X100.923 Y111.414 E3.31458
G1 X101.108 Y111.675 E3.32362
G1 X100.600 Y112.239 E3.34507
G1 X99.122 Y113.313 E3.39679
G1 X97.452 Y114.057 E3.44851
G1 X95.664 Y114.437 E3.50022
G1 X93.836 Y114.437 E3.55194
G1 X92.048 Y114.056 E3.60366
G1 X91.104 Y115.692 E3.65711
G1 X92.823 Y117.602 E3.72983
G1 X93.737 Y119.185 E3.78154
G1 X94.302 Y120.924 E3.83326
G1 X94.493 Y122.741 E3.88498
G1 X94.441 Y123.238 E3.89910
G1 X94.133 Y123.283 E3.90791
G1 X93.337 Y121.361 E3.96676
G1 X91.945 Y119.546 E4.03147
G1 X90.130 Y118.154 E4.09618
G1 X88.017 Y117.279 E4.16089
G1 X85.750 Y116.981 E4.22560
G1 X83.483 Y117.279 E4.29031
G1 X81.370 Y118.154 E4.35502
G1 X79.555 Y119.546 E4.41973
G1 X78.163 Y121.361 E4.48443
G1 X77.367 Y123.283 E4.54329
G1 X77.059 Y123.238 E4.55209
G1 X77.007 Y122.741 E4.56622
G1 X77.198 Y120.924 E4.61793
G1 X77.763 Y119.185 E4.66965
G1 X78.677 Y117.602 E4.72137
G1 X80.396 Y115.692 E4.79409
G1 X79.452 Y114.056 E4.84753
G1 X77.664 Y114.437 E4.89925
G1 X75.836 Y114.437 E4.95097
G1 X74.048 Y114.057 E5.00269
G1 X72.378 Y113.313 E5.05440
G1 X70.900 Y112.239 E5.10612
G1 X70.392 Y111.675 E5.12757
G1 X70.577 Y111.414 E5.13662
G1 X72.483 Y112.204 E5.19498
G1 X74.750 Y112.502 E5.25969
G1 X77.017 Y112.204 E5.32440
G1 X79.130 Y111.328 E5.38911
G1 X80.945 Y109.936 E5.45382
G1 X82.337 Y108.122 E5.51853
G1 X83.212 Y106.009 E5.58324
G1 X83.511 Y103.741 E5.64795
G1 X83.212 Y101.474 E5.71266
G1 X82.404 Y99.522 E5.77242
G1 X82.689 Y99.343 E5.78196
G1 X83.823 Y100.602 E5.82992
G1 X85.712 Y103.874 E5.93683
G1 X85.750 Y102.939 F7800.000
G1 X87.270 Y100.307 E6.02284 F1616.337
